dist/assets/img/icons/whatsApp.svg

<svg width="22" height="22" viewBox="0 0 22 22" fill="none" xmlns="http://www.w3.org/2000/svg">
<path d="M18.6375 3.31956C17.6443 2.31631 16.4613 1.52086 15.1574 0.979612C13.8536 0.438361 12.455 0.162139 11.0433 0.167057C5.12834 0.167057 0.307507 4.98789 0.307507 10.9029C0.307507 12.7987 0.80584 14.6404 1.73751 16.2654L0.22084 21.8337L5.90834 20.3387C7.47917 21.1946 9.24501 21.6496 11.0433 21.6496C16.9583 21.6496 21.7792 16.8287 21.7792 10.9137C21.7792 8.04289 20.6633 5.34539 18.6375 3.31956ZM11.0433 19.8296C9.44001 19.8296 7.86917 19.3962 6.49334 18.5837L6.16834 18.3887L2.78834 19.2771L3.68751 15.9837L3.47084 15.6479C2.58007 14.2254 2.10708 12.5812 2.10584 10.9029C2.10584 5.98456 6.11417 1.97622 11.0325 1.97622C13.4158 1.97622 15.6583 2.90789 17.3375 4.59789C18.1689 5.42552 18.8278 6.40994 19.276 7.4941C19.7242 8.57826 19.9527 9.74059 19.9483 10.9137C19.97 15.8321 15.9617 19.8296 11.0433 19.8296ZM15.94 13.1562C15.6692 13.0262 14.3475 12.3762 14.1092 12.2787C13.86 12.1921 13.6867 12.1487 13.5025 12.4087C13.3183 12.6796 12.8092 13.2862 12.6575 13.4596C12.5058 13.6437 12.3433 13.6654 12.0725 13.5246C11.8017 13.3946 10.935 13.1021 9.91667 12.1921C9.11501 11.4771 8.58417 10.5996 8.42167 10.3287C8.27001 10.0579 8.40001 9.91706 8.54084 9.77622C8.66001 9.65706 8.81167 9.46206 8.94167 9.31039C9.07167 9.15872 9.12584 9.03956 9.21251 8.86622C9.29917 8.68206 9.25584 8.53039 9.19084 8.40039C9.12584 8.27039 8.58417 6.94872 8.36751 6.40706C8.15084 5.88706 7.92334 5.95206 7.76084 5.94122H7.24084C7.05667 5.94122 6.77501 6.00622 6.52584 6.27706C6.28751 6.54789 5.59417 7.19789 5.59417 8.51956C5.59417 9.84122 6.55834 11.1196 6.68834 11.2929C6.81834 11.4771 8.58417 14.1854 11.2708 15.3446C11.91 15.6262 12.4083 15.7887 12.7983 15.9079C13.4375 16.1137 14.0225 16.0812 14.4883 16.0162C15.0083 15.9404 16.0808 15.3662 16.2975 14.7379C16.525 14.1096 16.525 13.5787 16.4492 13.4596C16.3733 13.3404 16.2108 13.2862 15.94 13.1562Z" fill="white"/>
</svg>

<svg width="22" height="22" fill="none" xmlns="http://www.w3.org/2000/svg"><path d="M18.637 3.32A10.633 10.633 0 0011.043.167C5.128.167.308 4.987.308 10.903c0 1.896.498 3.737 1.43 5.362L.22 21.834l5.687-1.495a10.737 10.737 0 005.135 1.31c5.915 0 10.736-4.82 10.736-10.735 0-2.871-1.116-5.569-3.142-7.594zm-7.594 16.51a8.95 8.95 0 01-4.55-1.246l-.325-.195-3.38.888.9-3.293-.217-.336a8.953 8.953 0 01-1.365-4.745c0-4.918 4.008-8.927 8.927-8.927a8.83 8.83 0 016.304 2.622 8.866 8.866 0 012.611 6.316c.022 4.918-3.986 8.916-8.905 8.916zm4.897-6.674c-.27-.13-1.592-.78-1.83-.877-.25-.087-.423-.13-.607.13-.185.27-.694.877-.845 1.05-.152.185-.315.206-.585.066-.271-.13-1.138-.423-2.156-1.333-.802-.715-1.333-1.592-1.495-1.863-.152-.271-.022-.412.119-.553.119-.119.27-.314.4-.466.13-.151.185-.27.272-.444.086-.184.043-.336-.022-.466a89.181 89.181 0 01-.823-1.993c-.217-.52-.445-.455-.607-.466h-.52a.973.973 0 00-.715.336c-.238.27-.932.92-.932 2.243 0 1.321.964 2.6 1.094 2.773.13.184 1.896 2.892 4.583 4.052a13.18 13.18 0 001.527.563c.64.206 1.225.173 1.69.108.52-.076 1.593-.65 1.81-1.278.227-.628.227-1.16.151-1.278-.076-.12-.238-.174-.509-.304z" fill="#fff"/></svg>
